!!!OTL: Der heimkehrende Braeutigam
!!!OTL-incipit:Es wollt' sich ein Juengling vermaehlen,
!!!ARE: Europa, Mitteleuropa, Deutschland / France, Lothringen
!!!YOR: 5, S. 144
!!    1939 gedruckt in Kassel
!!!SCT: Q0102D
!!!TXL: @@DE
!!!YEM: Copyright 1995, estate of Helmut Schaffrath.
**kern	**text
*ICvox	*
*M6/8	*
*k[f#]	*
*G:	*
!LO:TX:a:t=16 Lothringen	!
{8g	Es
=1	=1
8BL	wollt'
8d	sich
8gJ	ein
8BL	Jüng-
8d	-ling
8bJ	ver-
=2	=2
(8.bL	-mäh-
16a	.
8bJ)	.
4a}	-len,
{16aL	bei
16aJ	der
=3	=3
8dL	Ju-
8f#	-gend
16cc	wollt'
16aJ	er
8bL	neh-
8b	-men
8aJ	ein
=4	=4
4.g	Weib.
4r}	.
{8d	Es
=5	=5
8ccL	tut
8cc	ihn
8aJ	bald
8dL	wie-
8f#	-der-
8aJ	-um
=6	=6
(8gL	reu-
8b	.
8ddJ)	.
(8ddL	-en
8ccJ}	.
{16bL	und
16bJ	er
=7	=7
8aL	rei-
8a	-tet
(16cc	hin-
16eeJ)	.
8ddL	-aus
8dd	in
8ccJ	das
=8	=8
4.b	Feld.
4r}	.
==	==
!!!AGN: Ballade, Ehe - Geloebnis, Betrug
!!!ONB: ESAC (Essen Associative Code) Database: BALLADE
!!!AMT: compound duple
!!!AIN: vox
!!!EED: Helmut Schaffrath
!!!EEV: 1.0
!!!source: Deutsche Volkslieder mit ihren Melodien Balladen. Herausgegeben vom Deutschen Volksliedarchiv. Fünfter Teil. Freiburg/Breisgau 1965.
!!!page: 144
!!!ENC: Anna Maria Matuszewska
!!!EEV: 2025/02/28
*-	*-
